svgs/light/people-carry-box.svg

<svg xmlns="http://www.w3.org/2000/svg" viewBox="0 0 640 512"><!--! Font Awesome Pro 6.3.0 by @fontawesome - https://fontawesome.com License - https://fontawesome.com/license (Commercial License) Copyright 2023 Fonticons, Inc. --><path d="M503.1 112c30.88 0 56-25.12 56-56S534.9 0 503.1 0C473.1 0 448 25.12 448 56S473.1 112 503.1 112zM503.1 32c13.23 0 24 10.77 24 24s-10.77 24-24 24S480 69.23 480 56S490.8 32 503.1 32zM87.94 370.1c-7.703-4.453-17.47-1.734-21.83 5.953l-64 112c-4.391 7.672-1.719 17.45 5.953 21.83C10.57 511.3 13.3 512 15.99 512c5.562 0 10.95-2.891 13.91-8.062l63.1-112C98.28 384.3 95.61 374.5 87.94 370.1zM136 112C166.9 112 192 86.88 192 56S166.9 0 136 0c-30.88 0-56 25.12-56 56S105.1 112 136 112zM136 32C149.2 32 160 42.77 160 56S149.2 80 136 80s-24-10.77-24-24S122.8 32 136 32zM637.9 488.1l-64-112c-4.357-7.688-14.12-10.41-21.83-5.953c-7.672 4.375-10.34 14.16-5.953 21.83l63.1 112C613.1 509.1 618.4 512 624 512c2.688 0 5.422-.6719 7.922-2.109C639.6 505.5 642.3 495.7 637.9 488.1zM591.9 286.2l-12.09-107.9C576.6 149.6 552.4 128 523.5 128c-23.3 0-43.94 13.97-52.59 35.61l-26.22 57.72C437.8 236.4 427.8 249.3 416 260.1V176C416 149.5 394.5 128 368 128h-96C245.5 128 224 149.5 224 176v84.14c-11.83-10.83-21.85-23.72-28.7-38.81L169.1 163.6C160.4 141.1 139.8 128 116.5 128C87.63 128 63.43 149.6 60.19 178.3l-12.09 107.9C47.57 291 49.25 295.9 52.69 299.3l92.23 92.23l15.23 106.7C161.3 506.3 168.1 512 175.1 512c.75 0 1.516-.0469 2.281-.1562c8.75-1.25 14.83-9.359 13.58-18.11l-16-112c-.5-3.422-2.078-6.594-4.531-9.047L80.77 282.1L92 181.9C93.39 169.4 103.9 160 116.5 160c10.12 0 19.11 6.078 23.17 16.16l26.51 58.39C195.1 298.3 258.1 320 272 320h96c13.95 0 76.89-21.67 105.8-85.45l26.51-58.39C504.4 166.1 513.4 160 523.5 160c12.56 0 23.09 9.406 24.48 21.89l11.23 100.2l-90.54 90.56c-2.453 2.453-4.031 5.625-4.531 9.047l-16 112c-1.25 8.75 4.828 16.86 13.58 18.11C462.5 511.1 463.3 512 464 512c7.844 0 14.69-5.75 15.83-13.73l15.23-106.7l92.23-92.23C590.7 295.9 592.4 291 591.9 286.2zM384 272C384 280.8 376.8 288 368 288h-96C263.2 288 256 280.8 256 272v-96c0-8.828 7.175-16 16-16h95.1C376.8 159.1 384 167.2 384 176V272z"/></svg>

<svg xmlns="http://www.w3.org/2000/svg" viewBox="0 0 640 512"><!-- Font Awesome Pro 6.0.0-alpha2 by @fontawesome - https://fontawesome.com License - https://fontawesome.com/license (Commercial License) --><path d="M503.999 112C534.874 112 559.999 86.875 559.999 56S534.874 0 503.999 0C473.125 0 448 25.125 448 56S473.125 112 503.999 112ZM503.999 32C517.233 32 527.999 42.766 527.999 56S517.233 80 503.999 80S480 69.234 480 56S490.764 32 503.999 32ZM87.94 370.109C80.237 365.656 70.471 368.375 66.114 376.063L2.114 488.063C-2.277 495.734 0.395 505.516 8.067 509.891C10.567 511.328 13.301 512 15.989 512C21.551 512 26.942 509.109 29.895 503.938L93.893 391.938C98.284 384.266 95.612 374.484 87.94 370.109ZM136.002 112C166.875 112 192 86.875 192 56S166.875 0 136.002 0C105.127 0 80.002 25.125 80.002 56S105.127 112 136.002 112ZM136.002 32C149.237 32 160 42.766 160 56S149.237 80 136.002 80S112.002 69.234 112.002 56S122.768 32 136.002 32ZM637.887 488.062L573.887 376.062C569.53 368.375 559.764 365.656 552.061 370.109C544.389 374.484 541.717 384.266 546.108 391.937L610.106 503.937C613.059 509.109 618.45 512 624.012 512C626.7 512 629.434 511.328 631.934 509.891C639.606 505.516 642.278 495.734 637.887 488.062ZM591.903 286.219L579.809 178.328C576.575 149.641 552.374 128 523.514 128C500.217 128 479.579 141.969 470.922 163.609L444.704 221.328C437.85 236.422 427.829 249.305 416 260.139V176C416 149.531 394.469 128 368 128H272C245.532 128 224 149.531 224 176V260.139C212.172 249.305 202.151 236.422 195.297 221.328L169.079 163.609C160.422 141.969 139.784 128 116.487 128C87.627 128 63.426 149.641 60.192 178.328L48.098 286.219C47.567 291.047 49.254 295.875 52.692 299.312L144.924 391.547L160.157 498.266C161.297 506.25 168.141 512 175.985 512C176.735 512 177.5 511.953 178.266 511.844C187.016 510.594 193.094 502.484 191.844 493.734L175.844 381.734C175.344 378.312 173.766 375.141 171.313 372.688L80.768 282.125L92.002 181.891C93.393 169.406 103.924 160 116.487 160C126.612 160 135.596 166.078 139.659 176.156L166.172 234.547C195.108 298.328 258.053 320 272 320H368C381.948 320 444.893 298.328 473.829 234.547L500.342 176.156C504.405 166.078 513.389 160 523.514 160C536.077 160 546.608 169.406 547.999 181.891L559.233 282.125L468.688 372.687C466.235 375.141 464.657 378.312 464.157 381.734L448.157 493.734C446.907 502.484 452.985 510.594 461.735 511.844C462.5 511.953 463.266 512 464.016 512C471.86 512 478.704 506.25 479.844 498.266L495.077 391.547L587.309 299.313C590.747 295.875 592.434 291.047 591.903 286.219ZM384 272C384 280.828 376.829 288 368 288H272C263.172 288 256 280.828 256 272V176C256 167.172 263.172 160 272 160H368C376.829 160 384 167.172 384 176V272Z"/></svg>
